icons/modern/confounded-face.svg

<svg width="32" height="32" viewBox="0 0 32 32" fill="none" xmlns="http://www.w3.org/2000/svg">
<path d="M15.9989 29.9978C25.3333 29.9978 29.9978 23.7303 29.9978 15.9989C29.9978 8.26751 25.3333 2 15.9989 2C6.66443 2 2 8.26751 2 15.9989C2 23.7303 6.66443 29.9978 15.9989 29.9978Z" fill="url(#paint0_radial_31_1661)"/>
<path d="M15.9989 29.9978C25.3333 29.9978 29.9978 23.7303 29.9978 15.9989C29.9978 8.26751 25.3333 2 15.9989 2C6.66443 2 2 8.26751 2 15.9989C2 23.7303 6.66443 29.9978 15.9989 29.9978Z" fill="url(#paint1_radial_31_1661)"/>
<path d="M15.9989 29.9978C25.3333 29.9978 29.9978 23.7303 29.9978 15.9989C29.9978 8.26751 25.3333 2 15.9989 2C6.66443 2 2 8.26751 2 15.9989C2 23.7303 6.66443 29.9978 15.9989 29.9978Z" fill="url(#paint2_radial_31_1661)"/>
<path d="M15.9989 29.9978C25.3333 29.9978 29.9978 23.7303 29.9978 15.9989C29.9978 8.26751 25.3333 2 15.9989 2C6.66443 2 2 8.26751 2 15.9989C2 23.7303 6.66443 29.9978 15.9989 29.9978Z" fill="url(#paint3_radial_31_1661)" fill-opacity="0.6"/>
<path d="M15.9989 29.9978C25.3333 29.9978 29.9978 23.7303 29.9978 15.9989C29.9978 8.26751 25.3333 2 15.9989 2C6.66443 2 2 8.26751 2 15.9989C2 23.7303 6.66443 29.9978 15.9989 29.9978Z" fill="url(#paint4_radial_31_1661)"/>
<path d="M15.9989 29.9978C25.3333 29.9978 29.9978 23.7303 29.9978 15.9989C29.9978 8.26751 25.3333 2 15.9989 2C6.66443 2 2 8.26751 2 15.9989C2 23.7303 6.66443 29.9978 15.9989 29.9978Z" fill="url(#paint5_radial_31_1661)"/>
<path d="M15.9989 29.9978C25.3333 29.9978 29.9978 23.7303 29.9978 15.9989C29.9978 8.26751 25.3333 2 15.9989 2C6.66443 2 2 8.26751 2 15.9989C2 23.7303 6.66443 29.9978 15.9989 29.9978Z" fill="url(#paint6_radial_31_1661)"/>
<path d="M15.9989 29.9978C25.3333 29.9978 29.9978 23.7303 29.9978 15.9989C29.9978 8.26751 25.3333 2 15.9989 2C6.66443 2 2 8.26751 2 15.9989C2 23.7303 6.66443 29.9978 15.9989 29.9978Z" fill="url(#paint7_radial_31_1661)"/>
<g filter="url(#filter0_f_31_1661)">
<path d="M9.44746 19.3275C8.95348 19.5745 8.35281 19.3743 8.10582 18.8803C7.85883 18.3863 8.05906 17.7856 8.55303 17.5387L10.7595 16.4354H14.0002C13.9994 16.8133 13.7856 17.1585 13.4475 17.3275L9.44746 19.3275Z" fill="url(#paint8_radial_31_1661)" fill-opacity="0.6" style="mix-blend-mode:multiply"/>
<path d="M9.44746 13.5433C8.95348 13.2963 8.35281 13.4965 8.10582 13.9905C7.85883 14.4845 8.05906 15.0852 8.55303 15.3321L10.7595 16.4354H14.0002C13.9994 16.0575 13.7856 15.7123 13.4475 15.5433L9.44746 13.5433Z" fill="url(#paint9_radial_31_1661)" fill-opacity="0.6" style="mix-blend-mode:multiply"/>
</g>
<path d="M9.44746 18.8898C8.95348 19.1368 8.35281 18.9366 8.10582 18.4426C7.85883 17.9486 8.05906 17.3479 8.55303 17.101L10.7595 15.9977H14.0002C13.9994 16.3756 13.7856 16.7208 13.4475 16.8898L9.44746 18.8898Z" fill="url(#paint10_linear_31_1661)"/>
<path d="M9.44746 13.1058C8.95348 12.8588 8.35281 13.059 8.10582 13.553C7.85883 14.047 8.05906 14.6477 8.55303 14.8946L10.7595 15.9979H14.0002C13.9994 15.62 13.7856 15.2748 13.4475 15.1058L9.44746 13.1058Z" fill="url(#paint11_linear_31_1661)"/>
<g filter="url(#filter1_f_31_1661)">
<path d="M21.959 19.3275C22.453 19.5745 23.0537 19.3743 23.3007 18.8803C23.5477 18.3863 23.3474 17.7856 22.8535 17.5387L20.647 16.4354H17.4062C17.4071 16.8133 17.6209 17.1585 17.959 17.3275L21.959 19.3275Z" fill="url(#paint12_radial_31_1661)"/>
<path d="M21.959 13.5433C22.453 13.2963 23.0537 13.4965 23.3007 13.9905C23.5477 14.4845 23.3474 15.0852 22.8535 15.3321L20.647 16.4354H17.4062C17.4071 16.0575 17.6209 15.7123 17.959 15.5433L21.959 13.5433Z" fill="url(#paint13_radial_31_1661)"/>
</g>
<path d="M22.5372 18.8898C23.0311 19.1368 23.6318 18.9366 23.8788 18.4426C24.1258 17.9486 23.9256 17.3479 23.4316 17.101L21.2251 15.9977H17.9844C17.9852 16.3756 18.1991 16.7208 18.5372 16.8898L22.5372 18.8898Z" fill="url(#paint14_linear_31_1661)"/>
<path d="M22.5372 13.1058C23.0311 12.8588 23.6318 13.059 23.8788 13.553C24.1258 14.047 23.9256 14.6477 23.4316 14.8946L21.2251 15.9979H17.9844C17.9852 15.62 18.1991 15.2748 18.5372 15.1058L22.5372 13.1058Z" fill="url(#paint15_linear_31_1661)"/>
<g filter="url(#filter2_f_31_1661)">
<path d="M12.8728 23.0876L15.2652 25.0895M17.984 22.7612L20.3764 24.7632" stroke="#CD6256" stroke-width="1.5" stroke-linecap="round" stroke-linejoin="round"/>
</g>
<path d="M7.85364 22.4502L10.2499 24.4554" stroke="url(#paint16_linear_31_1661)" stroke-width="2" stroke-linecap="round" stroke-linejoin="round"/>
<path d="M10.25 24.4553L13.0183 22.1261" stroke="url(#paint17_linear_31_1661)" stroke-width="2" stroke-linecap="round" stroke-linejoin="round"/>
<path d="M13.1306 22.0513L16.0011 24.4557" stroke="url(#paint18_linear_31_1661)" stroke-width="2" stroke-linecap="round" stroke-linejoin="round"/>
<path d="M18.8705 22.0513L16 24.4557" stroke="url(#paint19_linear_31_1661)" stroke-width="2" stroke-linecap="round" stroke-linejoin="round"/>
<path d="M18.8705 22.0513L21.741 24.4557" stroke="url(#paint20_linear_31_1661)" stroke-width="2" stroke-linecap="round" stroke-linejoin="round"/>
<path d="M24.161 22.4268L21.7509 24.4552" stroke="url(#paint21_linear_31_1661)" stroke-width="2" stroke-linecap="round" stroke-linejoin="round"/>
<path d="M7.85364 22.4501L10.2499 24.4553L13.1255 22.0491L16.0011 24.4553L18.8766 22.0491L21.7522 24.4553L24.1485 22.4501" stroke="url(#paint22_linear_31_1661)" stroke-width="2" stroke-linecap="round" stroke-linejoin="round"/>
<g filter="url(#filter3_f_31_1661)">
<path d="M7.85364 22.4501L10.2499 24.4553L13.1255 22.0491L16.0011 24.4553L18.8766 22.0491L21.7522 24.4553L24.1485 22.4501" stroke="#694C5E" stroke-width="0.5" stroke-linecap="round" stroke-linejoin="round"/>
</g>
<defs>
<filter id="filter0_f_31_1661" x="7.5" y="12.9375" width="7.00024" height="6.99585" filterUnits="userSpaceOnUse" color-interpolation-filters="sRGB">
<feFlood flood-opacity="0" result="BackgroundImageFix"/>
<feBlend mode="normal" in="SourceGraphic" in2="BackgroundImageFix" result="shape"/>
<feGaussianBlur stdDeviation="0.25" result="effect1_foregroundBlur_31_1661"/>
</filter>
<filter id="filter1_f_31_1661" x="16.9062" y="12.9375" width="7.00024" height="6.99585" filterUnits="userSpaceOnUse" color-interpolation-filters="sRGB">
<feFlood flood-opacity="0" result="BackgroundImageFix"/>
<feBlend mode="normal" in="SourceGraphic" in2="BackgroundImageFix" result="shape"/>
<feGaussianBlur stdDeviation="0.25" result="effect1_foregroundBlur_31_1661"/>
</filter>
<filter id="filter2_f_31_1661" x="10.6228" y="20.5112" width="12.0036" height="6.82837" filterUnits="userSpaceOnUse" color-interpolation-filters="sRGB">
<feFlood flood-opacity="0" result="BackgroundImageFix"/>
<feBlend mode="normal" in="SourceGraphic" in2="BackgroundImageFix" result="shape"/>
<feGaussianBlur stdDeviation="0.75" result="effect1_foregroundBlur_31_1661"/>
</filter>
<filter id="filter3_f_31_1661" x="6.85364" y="21.0491" width="18.2949" height="4.40625" filterUnits="userSpaceOnUse" color-interpolation-filters="sRGB">
<feFlood flood-opacity="0" result="BackgroundImageFix"/>
<feBlend mode="normal" in="SourceGraphic" in2="BackgroundImageFix" result="shape"/>
<feGaussianBlur stdDeviation="0.375" result="effect1_foregroundBlur_31_1661"/>
</filter>
<radialGradient id="paint0_radial_31_1661" cx="0" cy="0" r="1" gradientUnits="userSpaceOnUse" gradientTransform="translate(25.5 9) rotate(132.839) scale(37.5033)">
<stop stop-color="#FFF478"/>
<stop offset="0.474827" stop-color="#FFB02E"/>
<stop offset="1" stop-color="#F70A8D"/>
</radialGradient>
<radialGradient id="paint1_radial_31_1661" cx="0" cy="0" r="1" gradientUnits="userSpaceOnUse" gradientTransform="translate(25.5 9) rotate(131.878) scale(38.9487)">
<stop stop-color="#FFF478"/>
<stop offset="0.474827" stop-color="#FFB02E"/>
<stop offset="1" stop-color="#F70A8D"/>
</radialGradient>
<radialGradient id="paint2_radial_31_1661" cx="0" cy="0" r="1" gradientUnits="userSpaceOnUse" gradientTransform="translate(16 12.5) rotate(101.31) scale(17.8466 22.8581)">
<stop offset="0.787821" stop-color="#F59639" stop-opacity="0"/>
<stop offset="0.972509" stop-color="#FF7DCE"/>
</radialGradient>
<radialGradient id="paint3_radial_31_1661" cx="0" cy="0" r="1" gradientUnits="userSpaceOnUse" gradientTransform="translate(18 14) rotate(135) scale(41.0122)">
<stop offset="0.314853" stop-opacity="0"/>
<stop offset="1"/>
</radialGradient>
<radialGradient id="paint4_radial_31_1661" cx="0" cy="0" r="1" gradientUnits="userSpaceOnUse" gradientTransform="translate(16 17) rotate(77.692) scale(28.1469)">
<stop offset="0.507903" stop-color="#7D6133" stop-opacity="0"/>
<stop offset="1" stop-color="#715B32"/>
</radialGradient>
<radialGradient id="paint5_radial_31_1661" cx="0" cy="0" r="1" gradientUnits="userSpaceOnUse" gradientTransform="translate(16.5 16.5) rotate(55.7131) scale(13.3135 9.65032)">
<stop stop-color="#FFB849"/>
<stop offset="1" stop-color="#FFB847" stop-opacity="0"/>
</radialGradient>
<radialGradient id="paint6_radial_31_1661" cx="0" cy="0" r="1" gradientUnits="userSpaceOnUse" gradientTransform="translate(20.5 18) rotate(9.86581) scale(11.6726)">
<stop stop-color="#FFA64B"/>
<stop offset="0.900412" stop-color="#FFAE46" stop-opacity="0"/>
</radialGradient>
<radialGradient id="paint7_radial_31_1661" cx="0" cy="0" r="1" gradientUnits="userSpaceOnUse" gradientTransform="translate(17.5 15) rotate(43.9708) scale(59.0529)">
<stop offset="0.185425" stop-opacity="0"/>
<stop offset="1" stop-opacity="0.4"/>
</radialGradient>
<radialGradient id="paint8_radial_31_1661" cx="0" cy="0" r="1" gradientUnits="userSpaceOnUse" gradientTransform="translate(9.78128 13.4375) rotate(110.225) scale(7.59317 9.92428)">
<stop stop-color="#9F5E0F"/>
<stop offset="0.889024" stop-color="#9F5E0F" stop-opacity="0"/>
</radialGradient>
<radialGradient id="paint9_radial_31_1661" cx="0" cy="0" r="1" gradientUnits="userSpaceOnUse" gradientTransform="translate(9.78128 13.4375) rotate(110.225) scale(7.59317 9.92428)">
<stop stop-color="#9F5E0F"/>
<stop offset="0.889024" stop-color="#9F5E0F" stop-opacity="0"/>
</radialGradient>
<linearGradient id="paint10_linear_31_1661" x1="10.5784" y1="19.7321" x2="8.00003" y2="14.3883" gradientUnits="userSpaceOnUse">
<stop offset="0.24955" stop-color="#482641"/>
<stop offset="0.406361" stop-color="#503A4A"/>
<stop offset="0.511203" stop-color="#482641"/>
</linearGradient>
<linearGradient id="paint11_linear_31_1661" x1="8.85962" y1="16.1385" x2="11.2502" y2="11.451" gradientUnits="userSpaceOnUse">
<stop offset="0.24955" stop-color="#482641"/>
<stop offset="0.406361" stop-color="#503A4A"/>
<stop offset="0.511203" stop-color="#482641"/>
</linearGradient>
<radialGradient id="paint12_radial_31_1661" cx="0" cy="0" r="1" gradientUnits="userSpaceOnUse" gradientTransform="translate(26.8281 20.4375) rotate(-135.995) scale(13.3597 17.4611)">
<stop stop-color="#E9830A"/>
<stop offset="0.801655" stop-color="#F08B13" stop-opacity="0"/>
</radialGradient>
<radialGradient id="paint13_radial_31_1661" cx="0" cy="0" r="1" gradientUnits="userSpaceOnUse" gradientTransform="translate(26.8281 20.4375) rotate(-135.995) scale(13.3597 17.4611)">
<stop stop-color="#E9830A"/>
<stop offset="0.801655" stop-color="#F08B13" stop-opacity="0"/>
</radialGradient>
<linearGradient id="paint14_linear_31_1661" x1="21.4063" y1="19.7321" x2="23.9846" y2="14.3883" gradientUnits="userSpaceOnUse">
<stop offset="0.24955" stop-color="#482641"/>
<stop offset="0.406361" stop-color="#503A4A"/>
<stop offset="0.511203" stop-color="#482641"/>
</linearGradient>
<linearGradient id="paint15_linear_31_1661" x1="23.125" y1="16.1385" x2="20.7344" y2="11.451" gradientUnits="userSpaceOnUse">
<stop offset="0.24955" stop-color="#482641"/>
<stop offset="0.406361" stop-color="#503A4A"/>
<stop offset="0.511203" stop-color="#482641"/>
</linearGradient>
<linearGradient id="paint16_linear_31_1661" x1="7.43183" y1="23.818" x2="11.2437" y2="19.2627" gradientUnits="userSpaceOnUse">
<stop stop-color="#482641"/>
<stop offset="0.322917" stop-color="#57434E"/>
<stop offset="0.4375" stop-color="#483637"/>
</linearGradient>
<linearGradient id="paint17_linear_31_1661" x1="11.7452" y1="24.6952" x2="8.81992" y2="21.1259" gradientUnits="userSpaceOnUse">
<stop offset="0.0197505" stop-color="#482641"/>
<stop offset="0.322917" stop-color="#57434E"/>
<stop offset="0.46422" stop-color="#483637"/>
</linearGradient>
<linearGradient id="paint18_linear_31_1661" x1="12.9309" y1="23.3905" x2="15.9396" y2="19.8689" gradientUnits="userSpaceOnUse">
<stop offset="0.0197505" stop-color="#482641"/>
<stop offset="0.322917" stop-color="#57434E"/>
<stop offset="0.46422" stop-color="#483637"/>
</linearGradient>
<linearGradient id="paint19_linear_31_1661" x1="19.0702" y1="23.3905" x2="16.0615" y2="19.8689" gradientUnits="userSpaceOnUse">
<stop offset="0.0197505" stop-color="#482641"/>
<stop offset="0.322917" stop-color="#57434E"/>
<stop offset="0.46422" stop-color="#483637"/>
</linearGradient>
<linearGradient id="paint20_linear_31_1661" x1="18.6707" y1="23.3905" x2="21.6795" y2="19.8689" gradientUnits="userSpaceOnUse">
<stop offset="0.0197505" stop-color="#482641"/>
<stop offset="0.322917" stop-color="#57434E"/>
<stop offset="0.46422" stop-color="#483637"/>
</linearGradient>
<linearGradient id="paint21_linear_31_1661" x1="24.8211" y1="23.39" x2="21.8124" y2="19.8684" gradientUnits="userSpaceOnUse">
<stop offset="0.0197505" stop-color="#482641"/>
<stop offset="0.322917" stop-color="#57434E"/>
<stop offset="0.46422" stop-color="#483637"/>
</linearGradient>
<linearGradient id="paint22_linear_31_1661" x1="16.0011" y1="25.56" x2="16.0011" y2="24.0059" gradientUnits="userSpaceOnUse">
<stop stop-color="#53265E"/>
<stop offset="1" stop-color="#53265E" stop-opacity="0"/>
</linearGradient>
</defs>
</svg>

<svg width="32" height="32" fill="none" xmlns="http://www.w3.org/2000/svg"><path d="M15.999 29.998c9.334 0 13.999-6.268 13.999-14 0-7.73-4.665-13.998-14-13.998C6.665 2 2 8.268 2 15.999c0 7.731 4.664 13.999 13.999 13.999Z" fill="url(#a)"/><path d="M15.999 29.998c9.334 0 13.999-6.268 13.999-14 0-7.73-4.665-13.998-14-13.998C6.665 2 2 8.268 2 15.999c0 7.731 4.664 13.999 13.999 13.999Z" fill="url(#b)"/><path d="M15.999 29.998c9.334 0 13.999-6.268 13.999-14 0-7.73-4.665-13.998-14-13.998C6.665 2 2 8.268 2 15.999c0 7.731 4.664 13.999 13.999 13.999Z" fill="url(#c)"/><path d="M15.999 29.998c9.334 0 13.999-6.268 13.999-14 0-7.73-4.665-13.998-14-13.998C6.665 2 2 8.268 2 15.999c0 7.731 4.664 13.999 13.999 13.999Z" fill="url(#d)" fill-opacity=".6"/><path d="M15.999 29.998c9.334 0 13.999-6.268 13.999-14 0-7.73-4.665-13.998-14-13.998C6.665 2 2 8.268 2 15.999c0 7.731 4.664 13.999 13.999 13.999Z" fill="url(#e)"/><path d="M15.999 29.998c9.334 0 13.999-6.268 13.999-14 0-7.73-4.665-13.998-14-13.998C6.665 2 2 8.268 2 15.999c0 7.731 4.664 13.999 13.999 13.999Z" fill="url(#f)"/><path d="M15.999 29.998c9.334 0 13.999-6.268 13.999-14 0-7.73-4.665-13.998-14-13.998C6.665 2 2 8.268 2 15.999c0 7.731 4.664 13.999 13.999 13.999Z" fill="url(#g)"/><path d="M15.999 29.998c9.334 0 13.999-6.268 13.999-14 0-7.73-4.665-13.998-14-13.998C6.665 2 2 8.268 2 15.999c0 7.731 4.664 13.999 13.999 13.999Z" fill="url(#h)"/><g filter="url(#i)" fill-opacity=".6"><path d="M9.447 19.328a1 1 0 1 1-.894-1.79l2.206-1.103H14a1 1 0 0 1-.553.893l-4 2Z" fill="url(#j)" style="mix-blend-mode:multiply"/><path d="M9.447 13.543a1 1 0 1 0-.894 1.79l2.206 1.102H14a1 1 0 0 0-.553-.892l-4-2Z" fill="url(#k)" style="mix-blend-mode:multiply"/></g><path d="M9.447 18.89a1 1 0 1 1-.894-1.789l2.206-1.103H14a1 1 0 0 1-.553.892l-4 2Z" fill="url(#l)"/><path d="M9.447 13.106a1 1 0 1 0-.894 1.789l2.206 1.103H14a1 1 0 0 0-.553-.892l-4-2Z" fill="url(#m)"/><g filter="url(#n)"><path d="M21.959 19.328a1 1 0 0 0 .895-1.79l-2.207-1.103h-3.24a1 1 0 0 0 .552.893l4 2Z" fill="url(#o)"/><path d="M21.959 13.543a1 1 0 0 1 .895 1.79l-2.207 1.102h-3.24a1 1 0 0 1 .552-.892l4-2Z" fill="url(#p)"/></g><path d="M22.537 18.89a1 1 0 1 0 .895-1.789l-2.207-1.103h-3.24a1 1 0 0 0 .552.892l4 2Z" fill="url(#q)"/><path d="M22.537 13.106a1 1 0 1 1 .895 1.789l-2.207 1.103h-3.24a1 1 0 0 1 .552-.892l4-2Z" fill="url(#r)"/><g filter="url(#s)"><path d="m12.873 23.088 2.392 2.002m2.719-2.329 2.392 2.002" stroke="#CD6256" stroke-width="1.5" stroke-linecap="round" stroke-linejoin="round"/></g><path d="m7.854 22.45 2.396 2.005" stroke="url(#t)" stroke-width="2" stroke-linecap="round" stroke-linejoin="round"/><path d="m10.25 24.455 2.768-2.329" stroke="url(#u)" stroke-width="2" stroke-linecap="round" stroke-linejoin="round"/><path d="m13.13 22.051 2.871 2.405" stroke="url(#v)" stroke-width="2" stroke-linecap="round" stroke-linejoin="round"/><path d="M18.87 22.051 16 24.456" stroke="url(#w)" stroke-width="2" stroke-linecap="round" stroke-linejoin="round"/><path d="m18.87 22.051 2.871 2.405" stroke="url(#x)" stroke-width="2" stroke-linecap="round" stroke-linejoin="round"/><path d="m24.161 22.427-2.41 2.028" stroke="url(#y)" stroke-width="2" stroke-linecap="round" stroke-linejoin="round"/><path d="m7.854 22.45 2.396 2.005 2.876-2.406L16 24.455l2.876-2.406 2.875 2.406 2.396-2.005" stroke="url(#z)" stroke-width="2" stroke-linecap="round" stroke-linejoin="round"/><g filter="url(#A)"><path d="m7.854 22.45 2.396 2.005 2.876-2.406L16 24.455l2.876-2.406 2.875 2.406 2.396-2.005" stroke="#694C5E" stroke-width=".5" stroke-linecap="round" stroke-linejoin="round"/></g><defs><radialGradient id="a" cx="0" cy="0" r="1" gradientUnits="userSpaceOnUse" gradientTransform="rotate(132.839 10.786 10.065) scale(37.5033)"><stop stop-color="#FFF478"/><stop offset=".475" stop-color="#FFB02E"/><stop offset="1" stop-color="#F70A8D"/></radialGradient><radialGradient id="b" cx="0" cy="0" r="1" gradientUnits="userSpaceOnUse" gradientTransform="rotate(131.878 10.74 10.193) scale(38.9487)"><stop stop-color="#FFF478"/><stop offset=".475" stop-color="#FFB02E"/><stop offset="1" stop-color="#F70A8D"/></radialGradient><radialGradient id="c" cx="0" cy="0" r="1" gradientUnits="userSpaceOnUse" gradientTransform="rotate(101.31 2.876 12.808) scale(17.8466 22.8581)"><stop offset=".788" stop-color="#F59639" stop-opacity="0"/><stop offset=".973" stop-color="#FF7DCE"/></radialGradient><radialGradient id="d" cx="0" cy="0" r="1" gradientUnits="userSpaceOnUse" gradientTransform="matrix(-29 29 -29 -29 18 14)"><stop offset=".315" stop-opacity="0"/><stop offset="1"/></radialGradient><radialGradient id="e" cx="0" cy="0" r="1" gradientUnits="userSpaceOnUse" gradientTransform="rotate(77.692 -2.555 18.434) scale(28.1469)"><stop offset=".508" stop-color="#7D6133" stop-opacity="0"/><stop offset="1" stop-color="#715B32"/></radialGradient><radialGradient id="f" cx="0" cy="0" r="1" gradientUnits="userSpaceOnUse" gradientTransform="rotate(55.713 -7.36 23.86) scale(13.3135 9.65032)"><stop stop-color="#FFB849"/><stop offset="1" stop-color="#FFB847" stop-opacity="0"/></radialGradient><radialGradient id="g" cx="0" cy="0" r="1" gradientUnits="userSpaceOnUse" gradientTransform="matrix(11.49998 2 -2 11.49998 20.5 18)"><stop stop-color="#FFA64B"/><stop offset=".9" stop-color="#FFAE46" stop-opacity="0"/></radialGradient><radialGradient id="h" cx="0" cy="0" r="1" gradientUnits="userSpaceOnUse" gradientTransform="rotate(43.971 -9.827 29.173) scale(59.0529)"><stop offset=".185" stop-opacity="0"/><stop offset="1" stop-opacity=".4"/></radialGradient><radialGradient id="j" cx="0" cy="0" r="1" gradientUnits="userSpaceOnUse" gradientTransform="matrix(-2.62502 7.125 -9.31237 -3.4309 9.781 13.438)"><stop stop-color="#9F5E0F"/><stop offset=".889" stop-color="#9F5E0F" stop-opacity="0"/></radialGradient><radialGradient id="k" cx="0" cy="0" r="1" gradientUnits="userSpaceOnUse" gradientTransform="matrix(-2.62502 7.125 -9.31237 -3.4309 9.781 13.438)"><stop stop-color="#9F5E0F"/><stop offset=".889" stop-color="#9F5E0F" stop-opacity="0"/></radialGradient><radialGradient id="o" cx="0" cy="0" r="1" gradientUnits="userSpaceOnUse" gradientTransform="rotate(-135.995 17.543 4.798) scale(13.3597 17.4611)"><stop stop-color="#E9830A"/><stop offset=".802" stop-color="#F08B13" stop-opacity="0"/></radialGradient><radialGradient id="p" cx="0" cy="0" r="1" gradientUnits="userSpaceOnUse" gradientTransform="rotate(-135.995 17.543 4.798) scale(13.3597 17.4611)"><stop stop-color="#E9830A"/><stop offset=".802" stop-color="#F08B13" stop-opacity="0"/></radialGradient><linearGradient id="l" x1="10.578" y1="19.732" x2="8" y2="14.388" gradientUnits="userSpaceOnUse"><stop offset=".25" stop-color="#482641"/><stop offset=".406" stop-color="#503A4A"/><stop offset=".511" stop-color="#482641"/></linearGradient><linearGradient id="m" x1="8.86" y1="16.139" x2="11.25" y2="11.451" gradientUnits="userSpaceOnUse"><stop offset=".25" stop-color="#482641"/><stop offset=".406" stop-color="#503A4A"/><stop offset=".511" stop-color="#482641"/></linearGradient><linearGradient id="q" x1="21.406" y1="19.732" x2="23.985" y2="14.388" gradientUnits="userSpaceOnUse"><stop offset=".25" stop-color="#482641"/><stop offset=".406" stop-color="#503A4A"/><stop offset=".511" stop-color="#482641"/></linearGradient><linearGradient id="r" x1="23.125" y1="16.139" x2="20.734" y2="11.451" gradientUnits="userSpaceOnUse"><stop offset=".25" stop-color="#482641"/><stop offset=".406" stop-color="#503A4A"/><stop offset=".511" stop-color="#482641"/></linearGradient><linearGradient id="t" x1="7.432" y1="23.818" x2="11.244" y2="19.263" gradientUnits="userSpaceOnUse"><stop stop-color="#482641"/><stop offset=".323" stop-color="#57434E"/><stop offset=".438" stop-color="#483637"/></linearGradient><linearGradient id="u" x1="11.745" y1="24.695" x2="8.82" y2="21.126" gradientUnits="userSpaceOnUse"><stop offset=".02" stop-color="#482641"/><stop offset=".323" stop-color="#57434E"/><stop offset=".464" stop-color="#483637"/></linearGradient><linearGradient id="v" x1="12.931" y1="23.39" x2="15.94" y2="19.869" gradientUnits="userSpaceOnUse"><stop offset=".02" stop-color="#482641"/><stop offset=".323" stop-color="#57434E"/><stop offset=".464" stop-color="#483637"/></linearGradient><linearGradient id="w" x1="19.07" y1="23.39" x2="16.061" y2="19.869" gradientUnits="userSpaceOnUse"><stop offset=".02" stop-color="#482641"/><stop offset=".323" stop-color="#57434E"/><stop offset=".464" stop-color="#483637"/></linearGradient><linearGradient id="x" x1="18.671" y1="23.39" x2="21.68" y2="19.869" gradientUnits="userSpaceOnUse"><stop offset=".02" stop-color="#482641"/><stop offset=".323" stop-color="#57434E"/><stop offset=".464" stop-color="#483637"/></linearGradient><linearGradient id="y" x1="24.821" y1="23.39" x2="21.812" y2="19.868" gradientUnits="userSpaceOnUse"><stop offset=".02" stop-color="#482641"/><stop offset=".323" stop-color="#57434E"/><stop offset=".464" stop-color="#483637"/></linearGradient><linearGradient id="z" x1="16.001" y1="25.56" x2="16.001" y2="24.006" gradientUnits="userSpaceOnUse"><stop stop-color="#53265E"/><stop offset="1" stop-color="#53265E" stop-opacity="0"/></linearGradient><filter id="i" x="7.5" y="12.938" width="7" height="6.996" filterUnits="userSpaceOnUse" color-interpolation-filters="sRGB"><feFlood flood-opacity="0" result="BackgroundImageFix"/><feBlend in="SourceGraphic" in2="BackgroundImageFix" result="shape"/><feGaussianBlur stdDeviation=".25" result="effect1_foregroundBlur_31_1661"/></filter><filter id="n" x="16.906" y="12.938" width="7" height="6.996" filterUnits="userSpaceOnUse" color-interpolation-filters="sRGB"><feFlood flood-opacity="0" result="BackgroundImageFix"/><feBlend in="SourceGraphic" in2="BackgroundImageFix" result="shape"/><feGaussianBlur stdDeviation=".25" result="effect1_foregroundBlur_31_1661"/></filter><filter id="s" x="10.623" y="20.511" width="12.004" height="6.828" filterUnits="userSpaceOnUse" color-interpolation-filters="sRGB"><feFlood flood-opacity="0" result="BackgroundImageFix"/><feBlend in="SourceGraphic" in2="BackgroundImageFix" result="shape"/><feGaussianBlur stdDeviation=".75" result="effect1_foregroundBlur_31_1661"/></filter><filter id="A" x="6.854" y="21.049" width="18.295" height="4.406" filterUnits="userSpaceOnUse" color-interpolation-filters="sRGB"><feFlood flood-opacity="0" result="BackgroundImageFix"/><feBlend in="SourceGraphic" in2="BackgroundImageFix" result="shape"/><feGaussianBlur stdDeviation=".375" result="effect1_foregroundBlur_31_1661"/></filter></defs></svg>
